X: 8390
T: Covering Ground
R: jig
M: 6/8
K: Edorian
|:"Em9"B2E FEE|DEF EDD|B2E DFA|ABd F2E|
B2E FEE|DEF EDD|"A4"B2d ec/B/A|"Bm11"Bcd F2E:|
|:"Em9"B2e cdB|EFB cFA|"GM13"B2e dcB|ABd F2E|
"Em9"B2e cdB|FBB cFA|"CM9"B2d ec/B/A|"Bm11"Bcd F2E:|
|:"GM13"B2A GBd|Fcd EFA|B2A GAF|"A4"ABd F2"Em9"E|
"GM13"B2A GBd|Fcd EFA|"CM9"B2d ec/B/A|"Bm11"Bcd F2E:|

